!!!COM: Palestrina, Giovanni Perluigi da
!!!OPR: Missa Tu es pastor ovium
!!!OTL: Gloria
**kern	**kern	**kern	**kern	**kern
*Ibass	*Itenor	*Itenor	*Icalto	*Icant
!Bassus	!Tenor 2	!Tenor 1	!Altus	!Cantus
*clefF4	*clefGv2	*clefGv2	*clefG2	*clefG2
*k[b-]	*k[b-]	*k[b-]	*k[b-]	*k[b-]
*G:dor	*G:dor	*G:dor	*G:dor	*G:dor
*M4/2	*M4/2	*M4/2	*M4/2	*M4/2
=1	=1	=1	=1	=1
1.G	1.d	1.B	0r	1.g
2G	2d	2B	.	2g
=2	=2	=2	=2	=2
1C	1e-	1c	0r	1g
1D	1d	1A	.	1f
=3	=3	=3	=3	=3
2G	1d	2G	0r	1b-
2G	.	2g	.	.
4C	1g	[1e-	.	1cc
4D	.	.	.	.
4E-	.	.	.	.
4F	.	.	.	.
=4	=4	=4	=4	=4
4G	2g	2e-]	0r	1b-
4A	.	.	.	.
1B-	2f	2d	.	.
.	1f	1c	.	1cc
2A	.	.	.	.
=5	=5	=5	=5	=5
1B-	2r	2r	2r	1dd
.	1f	1B-	1d	.
1r	.	.	.	2.dd
.	2g	2B-	2d	.
.	.	.	.	4dd
=6	=6	=6	=6	=6
0r	1a	2A	2d	2ff
.	.	2A	2c	2.ee
.	1d	1B-	2f	.
.	.	.	.	4dd
.	.	.	2g	[2dd
=7	=7	=7	=7	=7
1r	1e	1A	1a	2dd]
.	.	.	.	2cc#
2r	2d	2r	2r	2dd
2D	2f	2d	2a	2dd
=8	=8	=8	=8	=8
1D	1f	1d	1a	1dd
1A	1e	1c#	1a	1ee
=9	=9	=9	=9	=9
2D	2d	2d	2a	2ff
1B-	1f	1d	1b-	1dd
2B-	[2d	2f	2b-	2dd
=10	=10	=10	=10	=10
1B-	2d]	2.f	2.b-	1.dd
.	1B-	.	.	.
.	.	4e	8a	.
.	.	.	8g	.
1BB-	.	2d	2f	.
.	2B-	2B-	2f	2dd
=11	=11	=11	=11	=11
1F	1A	1c	1f	1cc
1BB-	1B-	1d	1f	1b-
=12	=12	=12	=12	=12
1.E-	1.B-	1.e-	1.g	2r
.	.	.	.	1b-
2E-	2G	2e-	2g	2b-
=13	=13	=13	=13	=13
1E-	1G	1e-	1g	1b-
1C	2c	1e-	1g	1cc
.	[2c	.	.	.
=14	=14	=14	=14	=14
0G	2c]	0d	1g	1.dd
.	4B	.	.	.
.	4A	.	.	.
.	2B	.	2r	.
.	2B	.	2g	2dd
=15	=15	=15	=15	=15
0r	2c	0r	2g	2ee-
.	2d	.	2f	2dd
.	2e-	.	4g	2b-
.	.	.	4a	.
.	2B-	.	4b-	2dd
.	.	.	4g	.
=16	=16	=16	=16	=16
0r	1c	0r	4a	2.cc
.	.	.	4g	.
.	.	.	1g	.
.	.	.	.	4b-
.	1d	.	.	1a
.	.	.	2f#	.
=17	=17	=17	=17	=17
1.G	1.B	2r	2g	1.dd
.	.	1d	1g	.
2G	2B	2d	2g	2dd
=18	=18	=18	=18	=18
1G	1B	1d	1g	1dd
[1C	[1c	[1e	[1g	[1cc
=19	=19	=19	=19	=19
2C]	2c]	2e]	2g]	2cc]
2C	2c	2e	2g	2cc
1F	1c	2f	1a	1cc
.	.	4f	.	.
.	.	4e-	.	.
=20	=20	=20	=20	=20
0BB-	0f	4d	0b-	0dd
.	.	4c	.	.
.	.	4B-	.	.
.	.	4A	.	.
.	.	1B-	.	.
=21	=21	=21	=21	=21
1F	2f	1c	1a	1cc
.	2.f	.	.	.
[1B-	.	[1d	[1f	1r
.	4e	.	.	.
.	4d	.	.	.
.	4c	.	.	.
=22	=22	=22	=22	=22
2B-]	2B-	2d]	2f]	0r
2A	2c	2c	2f	.
2G	2d	2B-	2g	.
2F	2d	2A	2a	.
=23	=23	=23	=23	=23
1G	2.d	2G	1b-	0r
.	.	2B-	.	.
.	4e	.	.	.
2F	2f	2c	2a	.
2E	2g	[2c	2g	.
=24	=24	=24	=24	=24
1D	2a	4c]	2f	1.ff
.	.	8B	.	.
.	.	8A	.	.
.	2d	2B	2f	.
1C	1g	1c	2r	.
.	.	.	4cc	2ee
.	.	.	4cc	.
=25	=25	=25	=25	=25
0r	0r	2d	2b-	2dd
.	.	2f	2a	2cc
.	.	1B-	1b-	1dd
=26	=26	=26	=26	=26
0r	0r	2f	2a	2cc
.	.	2g	1g	2b-
.	.	1d	.	1a
.	.	.	2f#	.
=27	=27	=27	=27	=27
2r	2r	1e	2g	1g
2.c	2.e	.	2.g	.
.	.	1r	.	1r
4c	4e	.	4g	.
2c	2e	.	2g	.
=28	=28	=28	=28	=28
2c	2e	0r	2a	0r
2B	2d	.	2g	.
2c	2e	.	2a	.
2d	2f	.	2b-	.
=29	=29	=29	=29	=29
2.c	1e	2r	4a	2r
.	.	.	4g	.
.	.	2.e	1g	2.cc
4B-	.	.	.	.
1A	1c	.	.	.
.	.	4e	.	4cc
.	.	2c	2f#	2cc
=30	=30	=30	=30	=30
1G	2r	2d	1g	2cc
.	1g	2d	.	2b
1r	.	2e	1r	2cc
.	[2a	[2f	.	2dd
=31	=31	=31	=31	=31
0r	4a]	4f]	0r	2.cc
.	4g	4e	.	.
.	1g	2c	.	.
.	.	.	.	4b-
.	.	1d	.	1a
.	2f#	.	.	.
=32	=32	=32	=32	=32
2r	2g	2G	2r	1g
1C	1e	1c	1g	.
.	.	.	.	1r
2G	2d	2B	2g	.
=33	=33	=33	=33	=33
1C	1e	1c	1g	0r
2D	2d	2A	2f	.
2BB-	2f	2d	2b-	.
=34	=34	=34	=34	=34
2F	2f	2c	2a	1r
2G	2d	2B-	2g	.
1D	2d	2A	2f	2r
.	[2f	[2d	[2a	[2dd
=35	=35	=35	=35	=35
0r	2f]	2d]	2a]	2dd]
.	2g	2G	2b-	2dd
.	1f	1d	1a	1dd
=36	=36	=36	=36	=36
0r	2e	2A	2a	2cc
.	2a	2F	2cc	2ff
.	2.g	2c	2cc	2ee
.	.	2G	2b-	2dd
.	4f	.	.	.
=37	=37	=37	=37	=37
2r	2e	2A	2a	2cc#
2.D	2.f#	2.d	2.a	2.dd
4D	4f#	4d	4a	4dd
2D	2f#	2d	2a	2dd
=38	=38	=38	=38	=38
1G	1g	1B	1d	1dd
1C	1e	2c	1g	1cc
.	.	[2c	.	.
=39	=39	=39	=39	=39
2F	2f	2c]	2c	2a
2BB-	2d	2B-	2f	2b-
2F	2c	2B-	2.f	2cc
2F	2c	2A	.	2cc
.	.	.	4f	.
=40	=40	=40	=40	=40
1BB-	1f	1B-	1d	1b-
[1F	2.f	[1A	2.a	[1dd
.	8e	.	4g	.
.	8d	.	.	.
=41	=41	=41	=41	=41
1F]	2.c	1A]	1f	1dd]
.	4d	.	.	.
1C	2e-	2G	1g	1cc
.	2e-	[2c	.	.
=42	=42	=42	=42	=42
0G	0d	2c]	0g	0dd
.	.	4B	.	.
.	.	4A	.	.
.	.	1B	.	.
=43	=43	=43	=43	=43
2C	2c	1c	0g	2.ee
2.c	2.e	.	.	.
.	.	.	.	4ff
.	.	1r	.	1gg
4c	4e	.	.	.
2B-	2d	.	.	.
=44	=44	=44	=44	=44
2A	2f	0r	1r	0r
2G	2e	.	.	.
2B-	2d	.	2r	.
2A	2f	.	[2cc	.
=45	=45	=45	=45	=45
2.G	4e	1r	4cc]	0r
.	4d	.	4cc	.
.	2.d	.	2b-	.
4F	.	.	.	.
1E	.	2r	2.g	.
.	8c#	.	.	.
.	8B	.	.	.
.	2c#	[2g	.	.
.	.	.	4a	.
=46	=46	=46	=46	=46
1D	1d	4g]	2b-	1r
.	.	4g	.	.
.	.	2f	2a	.
1r	1G	2e	2g	2r
.	.	2d	2b-	[2dd
=47	=47	=47	=47	=47
0r	2r	2f	2a	4dd]
.	.	.	.	4dd
.	2.g	2e	2g	2cc
.	.	[1d	2r	2b-
.	8f	.	.	.
.	8e	.	.	.
.	4f	.	2a	2a
.	4g	.	.	.
=48	=48	=48	=48	=48
0r	1a	2d]	2d	2ff
.	.	2c	2e	2.ee
.	1d	1B-	2f	.
.	.	.	.	4dd
.	.	.	2g	[2dd
=49	=49	=49	=49	=49
1r	1e	1A	1a	2dd]
.	.	.	.	2cc#
2r	1d	2r	2r	1dd
[2G	.	[2d	[2b-	.
=50	=50	=50	=50	=50
2G]	2G	2d]	2b-]	0r
2F#	2A	2d	2a	.
1G	1B	1d	1g	.
=51	=51	=51	=51	=51
1C	1c	1e-	1g	1r
1D	2A	2d	1f	2r
.	[2a	[2d	.	[2ff
=52	=52	=52	=52	=52
0r	2a]	2d]	2d	2ff]
.	2a	2c#	2e	2ee
.	1a	1d	1f	4dd
.	.	.	.	4ee
.	.	.	.	4ff
.	.	.	.	4dd
=53	=53	=53	=53	=53
0r	2.g	1G	1b-	4ee
.	.	.	.	4dd
.	.	.	.	1dd
.	4f	.	.	.
.	1e	1A	2.a	.
.	.	.	.	2cc#
.	.	.	4g	.
=54	=54	=54	=54	=54
2r	1d	2.B-	2f	2dd
1G	.	.	1b-	1dd
.	.	4c	.	.
.	2G	2d	.	.
2F#	2A	2d	2a	2dd
=55	=55	=55	=55	=55
1G	1B-	1d	1g	1dd
4C	1c	2r	[1g	1ee-
4D	.	.	.	.
4E-	.	[2G	.	.
4F	.	.	.	.
=56	=56	=56	=56	=56
0G	2.B-	4G]	0g]	[0dd
.	.	4A	.	.
.	.	4B-	.	.
.	8A	4c	.	.
.	8G	.	.	.
.	1B-	1d	.	.
=57	=57	=57	=57	=57
0D	0A	0d	0f#	0dd]
=58	=58	=58	=58	=58
0r	0r	0r	1g	1g
.	.	.	1b-	1dd
=59	=59	=59	=59	=59
0r	0r	0r	2a	2cc
.	.	.	2f	2a
.	.	.	2g	2b-
.	.	.	2a	2cc
=60	=60	=60	=60	=60
0r	1r	0G	2.b-	2.dd
.	.	.	4a	4cc
.	1d	.	2g	1b-
.	.	.	2g	.
=61	=61	=61	=61	=61
0r	1f	1d	2r	2a
.	.	.	2a	2dd
.	2e	2c	1cc	4ee
.	.	.	.	8dd
.	.	.	.	8ee
.	2c	2A	.	[2ff
=62	=62	=62	=62	=62
0r	2d	2B-	2b-	2ff]
.	2e	2c	4g	2ee
.	.	.	4a	.
.	2.f	2.d	4b-	[1dd
.	.	.	4a	.
.	.	.	[2a	.
.	4e	4c	.	.
=63	=63	=63	=63	=63
0r	1d	1B-	2a]	1dd]
.	.	.	2g	.
.	1e	1A	1a	1cc#
=64	=64	=64	=64	=64
1D	1f#	2r	2r	1dd
.	.	1d	1a	.
1D	1f#	.	.	1dd
.	.	2d	2a	.
=65	=65	=65	=65	=65
1.G	1g	4B-	1.b-	1dd
.	.	4A	.	.
.	.	4G	.	.
.	.	4A	.	.
.	2G	4B-	.	1dd
.	.	4c	.	.
2F	2A	2d	2a	.
=66	=66	=66	=66	=66
2.E-	1B-	2G	2.g	0ee-
.	.	1B-	.	.
4D	.	.	4f	.
1C	1c	.	4e-	.
.	.	.	4d	.
.	.	2A	2c	.
=67	=67	=67	=67	=67
1BB-	1d	0B-	1f	0dd
1r	1G	.	2r	.
.	.	.	2g	.
=68	=68	=68	=68	=68
1G	1g	0r	1b-	2r
.	.	.	.	2dd
1d	2f	.	2a	1ff
.	2d	.	2f	.
=69	=69	=69	=69	=69
2c	2e	0r	2g	2ee
2A	2f	.	2a	2cc
2B-	4d	.	2.g	2dd
.	4G	.	.	.
2c	[2g	.	.	2ee
.	.	.	4a	.
=70	=70	=70	=70	=70
1d	2g]	1r	4b-	1dd
.	.	.	8a	.
.	.	.	8g	.
.	2f#	.	2a	.
1G	1g	2r	1b	1dd
.	.	[2g	.	.
=71	=71	=71	=71	=71
1.c	2r	4g]	1.cc	1.ee
.	.	4f	.	.
.	1g	4e	.	.
.	.	4d	.	.
.	.	2c	.	.
2C	2g	2c	2cc	2ee
=72	=72	=72	=72	=72
1C	1g	1c	1cc	1ee
[1F	1a	[1A	1cc	[1ff
=73	=73	=73	=73	=73
2F]	1f	2A]	1a	2ff]
2F	.	2A	.	2ff
2D	2f	2d	2a	2ff
2D	2d	2d	2a	2ff
=74	=74	=74	=74	=74
1A	1e	1c#	1a	1ee
1D	2.a	1d	2.f	2dd
.	.	.	.	[2ff
.	4g	.	4g	.
=75	=75	=75	=75	=75
2.F	1f	0A	1a	4ff]
.	.	.	.	4ee
.	.	.	.	1dd
4G	.	.	.	.
1A	1e	.	1a	.
.	.	.	.	2cc#
=76	=76	=76	=76	=76
0D	1d	1A	1f#	1dd
.	2r	2r	2r	2r
.	2f#	2d	2a	2dd
=77	=77	=77	=77	=77
0r	1g	1c	1cc	1ee-
.	2f	1d	2a	2dd
.	2d	.	2b-	2dd
=78	=78	=78	=78	=78
0r	2.f	0r	2.a	2.cc
.	4g	.	4g	4b-
.	2f	.	2a	2cc
.	4B-	.	[2b-	[2dd
.	4c	.	.	.
=79	=79	=79	=79	=79
0r	4d	0r	2b-]	2dd]
.	4e	.	.	.
.	4f	.	2a	2cc
.	4F	.	.	.
.	4G	.	[1g	1b-
.	4A	.	.	.
.	4B-	.	.	.
.	4c	.	.	.
=80	=80	=80	=80	=80
1r	1d	2r	2g]	1a
.	.	2.a	2f	.
2r	1d	.	[1a	[1ff
.	.	4g	.	.
[2d	.	4f	.	.
.	.	4e	.	.
=81	=81	=81	=81	=81
2d]	0r	2d	2a]	2ff]
2c	.	2e	2a	2ee
2B-	.	2f	2b-	2dd
2F	.	2f	2a	2cc
=82	=82	=82	=82	=82
1G	1r	1d	1g	1b-
1F	2r	1d	2f	1a
.	[2f	.	[2a	.
=83	=83	=83	=83	=83
0r	2f]	2.A	2a]	2.cc
.	2e	.	2a	.
.	.	4A	.	4cc
.	2d	2f	2a	2dd
.	2A	2e	2a	2cc
=84	=84	=84	=84	=84
1r	1B-	1d	1f	1b-
2r	2F	2c	2f	1a
[2F	[2f	[2c	[2a	.
=85	=85	=85	=85	=85
2F]	2f]	2c]	2a]	0r
2E	2g	2c	2g	.
2F	2a	2c	2f	.
2C	2g	2c	2e	.
=86	=86	=86	=86	=86
2D	2f	2A	2d	0r
2A	4e	2A	2c	.
.	2f	.	.	.
1B-	.	1d	2f	.
.	4e	.	.	.
.	2d	.	2g	.
=87	=87	=87	=87	=87
2A	2c#	1e	2a	2r
2A	2c#	.	4r	2ee
.	.	.	4a	.
2d	2d	1r	2a	2ff
2c#	2e	.	2a	2ee
=88	=88	=88	=88	=88
2d	2f	1r	2a	2dd
2G	2g	.	2b-	2dd
2A	2e	2r	2a	2cc#
2A	2e	2c#	2a	2ee
=89	=89	=89	=89	=89
1D	1f#	1d	1a	1dd
1G	[1g	1d	1b	1dd
=90	=90	=90	=90	=90
2C	2g]	1c	2cc	1ee
1c	2e	.	1g	.
.	2d	2G	.	2.gg
2B	2d	2G	2g	.
.	.	.	.	4gg
=91	=91	=91	=91	=91
1c	1c	2.g	1e	2gg
.	.	.	.	2.gg
.	.	4f	.	.
1C	1e	4e	1g	.
.	.	4d	.	4ff
.	.	4c	.	4ee
.	.	4B-	.	4dd
=92	=92	=92	=92	=92
0F	2f	2.A	2a	4cc
.	.	.	.	4b-
.	2.c	.	4cc	4a
.	.	4B-	4b-	4g
.	.	2c	4a	2.f
.	4B-	.	4g	.
.	4A	[2f	[2a	.
.	4G	.	.	4g
=93	=93	=93	=93	=93
1D	1F	2f]	4a]	2a
.	.	.	4g	.
.	.	2F	1f	2b-
1C	1G	1c	.	1cc
.	.	.	2e	.
=94	=94	=94	=94	=94
1F	1F	1c	1f	1a
1F	1A	1f	1a	1cc
=95	=95	=95	=95	=95
2.D	1d	1.a	2.f	1ff
4E	.	.	4g	.
4F	1c	.	4a	2ff
4G	.	.	4b-	.
2A	.	2a	2cc	[2ee
=96	=96	=96	=96	=96
1D	1.A	2a	2f	4ee]
.	.	.	.	4dd
.	.	2f	1a	1dd
2.A	.	1e	.	.
.	2A	.	2e	2cc#
4A	.	.	.	.
=97	=97	=97	=97	=97
2D	2A	1d	2f#	0dd
2d	2f	.	2a	.
2.d	2.f	1r	2.b-	.
4c	4e	.	4a	.
=98	=98	=98	=98	=98
2B-	2d	1r	2g	0r
2A	2c	.	2f	.
2G	2B-	[1d	2g	.
2F#	2A	.	2a	.
=99	=99	=99	=99	=99
2G	2G	2d]	2b-	0r
2F	2.c	2A	2.a	.
1E-	.	2c	.	.
.	4B-	.	4g	.
.	4A	2c	[2g	.
.	4G	.	.	.
=100	=100	=100	=100	=100
1D	1A	1d	2g]	1r
.	.	.	2f#	.
1G	1G	2B-	2g	2r
.	.	2G	2b-	2dd
=101	=101	=101	=101	=101
0r	0r	2.d	2.a	2.ff
.	.	4c	4a	4ee
.	.	2B-	2b-	2dd
.	.	2F	2a	2cc
=102	=102	=102	=102	=102
0r	0r	2G	2g	2b-
.	.	2d	2f	2a
.	.	2e	2g	2g
.	.	[2f	[2a	[2cc
=103	=103	=103	=103	=103
1r	1r	4f]	4a]	4cc]
.	.	4g	4g	4b-
.	.	2e-	1g	4b-
.	.	.	.	8a
.	.	.	.	8g
2r	2r	1d	.	1a
2D	2d	.	2f#	.
=104	=104	=104	=104	=104
2.B-	2.d	1G	1g	1g
4A	4c	.	.	.
2G	2B-	[1d	2r	1r
2F	2A	.	2a	.
=105	=105	=105	=105	=105
1G	4G	1d]	2b-	2r
.	4A	.	.	.
.	4B-	.	2b-	2dd
.	4c	.	.	.
1D	1d	2r	1a	2.ff
.	.	2d	.	.
.	.	.	.	4ee
=106	=106	=106	=106	=106
2BB-	2d	2.f	2r	2dd
2F	2A	.	2f	2cc
.	.	4e	.	.
2BB-	2B-	2d	2.f	2b-
2F	2c	2c	.	2a
.	.	.	4e	.
=107	=107	=107	=107	=107
2G	2r	2B-	2d	2g
2F	1c	2A	2f	2.cc
2E	.	2G	2g	.
.	.	.	.	4b-
[2F	2c	[2c	[2a	4a
.	.	.	.	4g
=108	=108	=108	=108	=108
2F]	2A	4c]	2a]	2f
.	.	4B-	.	.
2E-	2c	4A	1g	2g
.	.	4G	.	.
1D	1d	1A	.	1dd
.	.	.	2f#	.
=109	=109	=109	=109	=109
0G	0d	0G	0g	0b
==	==	==	==	==
*-	*-	*-	*-	*-
!!!CDT: 1525/^1526/-1594/2/2
!!!OCY: Italia
!!!AGN: Mass (Parody)
!!!AST: renaissance, vocal
!!!ASW: Motet (Palestrina)
!!!PWK: Masses, Book 7
!!!RNB: Cadence finals: D
!!!YOR: Le Opere Complete, v. 23, p. 115
!!!YOO: Rome, Italy: Fratelli Scalera
!!!END: 1992//
!!!EED: John Miller
!!!YEC: Copyright 2000, John Miller
!!!YEN: United States of America
!!!YEM: Rights to all derivative electronic formats reserved.
!!!YEM: Refer to licensing agreement for further details.
!!!YEM: This file must be accompanied by the licensing agreement.
!!!YEM: A copy of the licensing agreement may be found at http://www.music-cog.ohio-state.edu/HumdrumDatabases/Palestrina/license.txt
!!!EMD: converted to Humdrum by Bret Aarden
